app/dist/common/images/ormat-technologies.svg

<svg height="18" width="18" xmlns="http://www.w3.org/2000/svg"><path d="m0 0h18v18h-18z" fill="#e82c2a"/><g fill="#fff"><path d="m9.065 6.141v.634c1.284.02 2.401.821 2.906 2.163h2.024c0-2.163-2.695-3.718-4.93-2.797zm-.065 5.753v-.64c-1.297-.02-2.452-.897-2.962-2.253h-2.038c0 .822.398 1.593.999 2.142.661.605 1.594.983 2.629.983.466 0 .931 0 1.372-.232zm-2.884-2.946h.638c.02-1.282.896-2.424 2.246-2.928v-2.02c-1.914 0-3.125 1.927-3.125 3.676 0 .436.042.877.241 1.272z"/><path d="m9.063 6c1.879-.625 4.021.077 4.842 1.925 0-.62-.845-2.073-1.444-2.604-.883-.782-2.098-1.321-3.398-1.321zm-3.079 2.942c-.702-1.61.227-4.258 1.936-4.812-.405.045-.897.269-1.286.463-1.516.908-2.634 2.557-2.634 4.35h1.984zm5.927.059h-.635c-.02 1.291-.89 2.442-2.234 2.95v2.024c2.29 0 3.688-2.744 2.87-4.974z"/><path d="m10.107 13.885c2.457-.602 3.893-2.302 3.893-4.884h-1.984c.684 1.877-.105 3.99-1.91 4.884zm-1.107.115v-1.98c-2.289.674-4.083-.384-4.95-1.915.566 2.227 2.298 3.895 4.95 3.895z"/></g></svg>

<!-- by TradingView --><svg width="18" height="18" xmlns="http://www.w3.org/2000/svg"><path fill="#E82C2A" d="M0 0h18v18H0z"/><path d="M9.065 6.141v.634c1.284.02 2.401.821 2.906 2.163h2.024c0-2.163-2.695-3.718-4.93-2.797zM9 11.894v-.64c-1.297-.02-2.452-.897-2.962-2.253H4c0 .822.398 1.593.999 2.142.661.605 1.594.983 2.629.983.466 0 .931 0 1.372-.232zM6.116 8.948h.638C6.774 7.666 7.65 6.524 9 6.02V4C7.086 4 5.875 5.927 5.875 7.676c0 .436.042.877.241 1.272z" fill="#fff"/><path d="M9.063 6c1.879-.625 4.021.077 4.842 1.925 0-.62-.845-2.073-1.444-2.604C11.578 4.539 10.363 4 9.063 4v2zM5.984 8.942c-.702-1.61.227-4.258 1.936-4.812-.405.045-.897.269-1.286.463C5.118 5.501 4 7.15 4 8.943h1.984zM11.911 9.001h-.635c-.02 1.291-.89 2.442-2.234 2.95v2.024c2.29 0 3.688-2.744 2.87-4.974z" fill="#fff"/><path d="M10.107 13.885C12.564 13.283 14 11.583 14 9.001h-1.984c.684 1.877-.105 3.99-1.91 4.884zM9 14v-1.98c-2.289.674-4.083-.384-4.95-1.915C4.616 12.332 6.348 14 9 14z" fill="#fff"/></svg>
